images_files/dinosaursVG/diploB.svg

<svg width="319" height="94" viewBox="0 0 319 94" fill="none" xmlns="http://www.w3.org/2000/svg">
<path d="M181.254 19.8384C182.298 19.8384 192.566 21.7238 208.664 19.8384L225.633 16.3578L243.036 12.007M234.769 27.6699L214.32 34.6313L208.664 35.9365L195.612 38.1119L188.215 38.9821" stroke="#171A1C" stroke-width="3"/>
<path d="M242.166 12.2544L249.562 7.98174L259.134 3.70907L270.881 2L286.979 2.85453L301.337 6.27267L306.558 8.83627L312.649 13.9635L317 22.0816V27.2088L315.26 33.6178L310.474 38.745L304.383 41.3086L284.804 44.2994L275.232 45.154L261.744 46.0085H254.348H248.692L239.555 47.2903L230.418 48.9994L223.892 51.1357L219.541 53.6993C219.541 53.6993 218.031 55.4122 217.366 56.6902L216.931 58.3992V59.681L217.366 61.3901L218.236 63.9537L223.022 66.5173L230.418 68.6537L241.296 69.9355L253.043 70.308L262.615 69.9355C262.615 69.9355 277.843 66.9363 274.797 68.1326C271.751 69.3289 269.576 70.308 269.576 70.308L263.485 72.4991L256.741 73.3536H244.341L234.334 72.4991L225.633 70.79L219.541 68.6537L215.35 65.6628L214.4 62.4583L213.45 59.2538L214.756 53.6993L217.366 51.1357L222.152 48.1448L230.418 45.154L244.341 42.5904L256.741 41.4795H262.18L268.271 41.0522L274.362 40.6249L281.323 40.1977L291.33 38.745L299.597 37.2417L305.253 35.0663L309.604 30.7155L310.474 27.2088V24.1892L309.604 22.0816L305.688 16.3577L298.726 12.2544L290.025 10.1181L275.232 9.26354L269.576 10.9726L265.225 12.2544L259.134 15.4876L254.348 18.0981L247.387 22.5088L234.769 27.6699" stroke="#171A1C" stroke-width="3"/>
<path d="M50.2942 12.442L53.7749 9.83154V12.442" stroke="#171A1C" stroke-width="3"/>
<path d="M62.0414 15.0525L65.5221 12.442V15.0525" stroke="#171A1C" stroke-width="3"/>
<path d="M76.8343 17.663L80.3149 15.0525V17.663" stroke="#171A1C" stroke-width="3"/>
<path d="M89.8867 16.7929L93.3674 14.1824V16.7929" stroke="#171A1C" stroke-width="3"/>
<path d="M106.42 15.0525L109.901 12.442V15.0525" stroke="#171A1C" stroke-width="3"/>
<path d="M121.213 13.3122L124.693 10.7017V13.3122" stroke="#171A1C" stroke-width="3"/>
<path d="M136.006 13.3122L139.486 10.7017V13.3122" stroke="#171A1C" stroke-width="3"/>
<path d="M150.798 13.3122L154.279 10.7017V13.3122" stroke="#171A1C" stroke-width="3"/>
<path d="M167.331 16.7929L170.812 14.1824V16.7929" stroke="#171A1C" stroke-width="3"/>
<path d="M183.865 20.2735L187.345 17.663V20.2735" stroke="#171A1C" stroke-width="3"/>
<path d="M213.45 18.9682L216.931 15.9226V18.5331" stroke="#171A1C" stroke-width="3"/>
<path d="M228.243 15.4876L231.724 12.442V15.0525" stroke="#171A1C" stroke-width="3"/>
<path d="M241.731 12.442L244.776 8.09119L245.646 10.7017" stroke="#171A1C" stroke-width="3"/>
<path d="M199.528 20.7086L203.008 18.5332V21.1437" stroke="#171A1C" stroke-width="3"/>
<path d="M111.623 60.4437L102.069 48.2583C102.069 48.2583 97.6346 38.995 95.1077 36.8067C92.5808 34.6184 61.6064 30.2804 61.6064 30.2804L25.8228 19.9079L10.0782 28.1748C10.0782 28.1748 5.07298 29.2932 3.22639 26.57C1.37981 23.8468 1.81716 21.8531 3.22639 19.9079C4.63563 17.9628 16.3487 7.65613 18.0981 7.65613C19.8475 7.65613 25.0594 7.65613 25.0594 7.65613L79.538 18.0981L105.55 15.2396L124.955 13.2458H150.225L182.151 19.9079M111.623 60.4437C111.623 60.4437 114.005 65.5497 114.928 69.9749C115.61 73.2465 115.284 85.1811 115.067 89.3956M111.623 60.4437L105.55 86.8412V89.3956H115.067M111.623 60.4437L110.771 52.9047V50.2943M123.388 43.4927L128.317 53.2184V57.6907V62.9117M128.317 62.9117C128.317 62.9117 130.507 92.3199 128.174 91.8337C125.842 91.3474 114.928 91.8337 114.928 91.8337C114.928 91.8337 114.991 90.8817 115.067 89.3956M128.317 62.9117C128.317 62.9117 153.966 67.8556 157.125 66.7371C160.284 65.6187 164.286 63.7818 164.286 63.7818C164.286 63.7818 158.145 85.8686 158.437 86.8412C158.729 87.8138 169.32 86.8412 170.194 86.8412M165.591 36.8067L161.741 50.8842L164.208 58.9566L167.331 66.7371C167.331 66.7371 170.436 90.7638 171.894 91.8337C173.352 92.9035 184.043 91.8337 184.966 91.8337C185.889 91.8337 179.284 58.9566 179.284 58.9566C179.284 58.9566 183.789 42.2428 189.086 38.547" stroke="#171A1C" stroke-width="3"/>
</svg>

<svg xmlns="http://www.w3.org/2000/svg" width="319" height="94" fill="none" xmlns:v="https://vecta.io/nano"><g stroke="#171a1c" stroke-width="3"><path d="M181.254 19.838c1.044 0 11.312 1.885 27.41 0l16.969-3.481 17.403-4.351m-8.267 15.663l-20.449 6.961-5.656 1.305-13.052 2.175-7.397.87"/><path d="M242.166 12.254l7.396-4.273 9.572-4.273L270.881 2l16.098.855 14.358 3.418 5.221 2.564 6.091 5.127L317 22.082v5.127l-1.74 6.409-4.786 5.127-6.091 2.564-19.579 2.991-9.572.855-13.488.854h-7.396-5.656l-9.137 1.282L230.418 49l-6.526 2.136-4.351 2.564s-1.51 1.713-2.175 2.991l-.435 1.709v1.282l.435 1.709.87 2.564 4.786 2.564 7.396 2.136 10.878 1.282 11.747.373 9.572-.373s15.228-2.999 12.182-1.803-5.221 2.175-5.221 2.175l-6.091 2.191-6.744.855h-12.4l-10.007-.855-8.701-1.709-6.092-2.136-4.191-2.991-.95-3.205-.95-3.205 1.306-5.554 2.61-2.564 4.786-2.991 8.266-2.991 13.923-2.564 12.4-1.111h5.439l6.091-.427 6.091-.427 6.961-.427 10.007-1.453 8.267-1.503 5.656-2.175 4.351-4.351.87-3.507v-3.02l-.87-2.108-3.916-5.724-6.962-4.103-8.701-2.136-14.793-.855-5.656 1.709-4.351 1.282-6.091 3.233-4.786 2.61-6.961 4.411-12.618 5.161M50.294 12.442l3.481-2.61v2.61"/><use href="#B"/><use href="#B" x="14.793" y="2.61"/><use href="#B" x="27.846" y="1.74"/><use href="#B" x="44.379"/><path d="M121.213 13.312l3.48-2.61v2.611m11.313-.001l3.48-2.61v2.611"/><use href="#B" x="88.757" y="-1.741"/><use href="#B" x="105.29" y="1.74"/><path d="M183.865 20.274l3.48-2.61v2.61m26.105-1.306l3.481-3.046v2.611m11.312-3.045l3.481-3.046v2.611m10.007-2.611l3.045-4.351.87 2.611m-46.118 10.007l3.48-2.175v2.61m-91.385 39.3l-9.554-12.185s-4.434-9.263-6.961-11.452-33.501-6.526-33.501-6.526L25.823 19.908l-15.745 8.267s-5.005 1.118-6.852-1.605-1.409-4.717 0-6.662S16.349 7.656 18.098 7.656h6.961l54.479 10.442 26.012-2.858 19.405-1.994h25.27l31.926 6.662m-70.528 40.536s2.382 5.106 3.305 9.531c.682 3.272.356 15.206.139 19.421m-3.444-28.952l-6.073 26.398v2.554h9.517m-3.444-28.952l-.852-7.539v-2.61m12.617-6.802l4.929 9.726v4.472 5.221m0 0s2.19 29.408-.143 28.922-13.246 0-13.246 0l.139-2.438m13.25-26.484s25.649 4.944 28.808 3.825 7.161-2.955 7.161-2.955-6.141 22.087-5.849 23.059 10.883 0 11.757 0m-4.603-50.034l-3.85 14.078 2.467 8.072 3.123 7.78s3.105 24.027 4.563 25.097 12.149 0 13.072 0-5.682-32.877-5.682-32.877 4.505-16.714 9.802-20.41"/></g><defs ><path id="B" d="M62.041 15.053l3.481-2.61v2.611"/></defs></svg>
